epam-assets/icon-sources/18/internal-logo/anywhere.svg

<svg width="18" height="18" viewBox="0 0 18 18" fill="none" xmlns="http://www.w3.org/2000/svg">
<g id="18/internal-logo/anywhere">
<path id="icon" d="M14.6526 9.97082C14.4718 9.77786 14.2461 9.65662 14.0088 9.60604L12.9766 4.38906C13.2592 4.07896 13.432 3.66198 13.4286 3.20334C13.4216 2.25546 12.6691 1.49287 11.7479 1.50005C10.8266 1.50723 10.0855 2.28147 10.0926 3.22937C10.0956 3.63934 10.2385 4.01429 10.4738 4.30764L5.00394 13.2709C4.86983 13.2345 4.72953 13.2138 4.58416 13.215C3.70255 13.2219 2.9933 13.9627 3.00005 14.8699C3.0068 15.777 3.72692 16.5069 4.60853 16.5C5.49006 16.4931 6.19931 15.7521 6.19261 14.845C6.18963 14.4434 6.04643 14.077 5.81172 13.7934L11.2661 4.85545C11.4263 4.9066 11.5966 4.93404 11.7734 4.93266C11.8861 4.93177 11.996 4.91908 12.1023 4.89631L13.0711 9.79288C13.0111 9.83395 12.9525 9.87838 12.8986 9.93143C12.4054 10.4171 12.391 11.2223 12.8665 11.7298C13.342 12.2373 14.1272 12.255 14.6205 11.7693C15.1137 11.2836 15.1281 10.4783 14.6526 9.97082Z" fill="#6C6F80"/>
</g>
</svg>

<svg xmlns="http://www.w3.org/2000/svg" width="18" height="18" fill="none" viewBox="0 0 18 18">
  <path fill="#6C6F80" d="M14.653 9.97a1.23 1.23 0 0 0-.644-.364l-1.032-5.217a1.74 1.74 0 0 0 .452-1.186c-.007-.948-.76-1.71-1.681-1.703-.921.007-1.662.781-1.655 1.73.003.41.146.784.38 1.078l-5.47 8.963a1.55 1.55 0 0 0-.419-.056c-.881.007-1.59.748-1.584 1.655.007.907.727 1.637 1.609 1.63.881-.007 1.59-.748 1.584-1.655a1.663 1.663 0 0 0-.381-1.052l5.454-8.938a1.623 1.623 0 0 0 .836.041l.97 4.897a1.19 1.19 0 0 0-.173.138 1.295 1.295 0 0 0-.032 1.799 1.22 1.22 0 0 0 1.753.04 1.295 1.295 0 0 0 .033-1.8Z"/>
</svg>
